X: 7809
T: Come Up To The Room, I Want Ye
R: reel
M: 4/4
K: Gmajor
d2BG DGBd|egdg eage|d2 BG DGBd|e2 dc BGBc|
dG G2 DGBd|egdg eage|d2BG DGBd|egdc BGBd||
g2bg dgbg|g2 bg abge|g2bg efge|dega bg g2|
g2 bg dgbg|g2 bg agab|g2 fg egdB|dega bgge||

